picto/truck-right.svg

<svg class="color-immutable" width="24" height="24" viewBox="0 0 24 24" fill="none" xmlns="http://www.w3.org/2000/svg"><g clip-path="url(#a)"><path d="M0 22.5v-21C0 .675.675 0 1.5 0h21c.825 0 1.5.675 1.5 1.5v21c0 .825-.675 1.5-1.5 1.5h-21C.675 24 0 23.325 0 22.5Z" fill="#2D327D"/><path d="M15.075 16.35a2.325 2.325 0 1 0 0 4.65 2.325 2.325 0 0 0 0-4.65Zm0 3.525a1.2 1.2 0 1 1 0-2.4 1.2 1.2 0 0 1 0 2.4ZM11.626 17.775H3.001v1.5h8.625v-1.5Z" fill="#fff"/><path d="m20.954 13-.676-2.476a1.35 1.35 0 0 0-1.304-1h-6.223l-.003 6.917a3.225 3.225 0 0 1 5.552 2.222V18.9c0 .207.168.375.375.375h1.95A.375.375 0 0 0 21 18.9l.001-.225V13.35c0-.118-.016-.236-.047-.35Zm-1.904-2.8c.271 0 .506.182.577.445l.536 2.008a.375.375 0 0 1-.362.472h-4.8a.375.375 0 0 1-.375-.375v-2.175c0-.207.168-.375.375-.375h4.049ZM3 17.021l8.625.004V8.55a.375.375 0 0 0-.375-.375H3V10.2h5.7a.375.375 0 0 1 0 .75H3v.75h5.7a.375.375 0 0 1 0 .75H3v4.571Z" fill="#fff"/></g><defs><clipPath id="a"><path fill="#fff" d="M0 0h24v24H0z"/></clipPath></defs></svg>

<svg class="color-immutable" width="24" height="24" viewBox="0 0 24 24" fill="none" xmlns="http://www.w3.org/2000/svg"><path d="M0 22.5V1.5C0 0.675 0.675 0 1.5 0H22.5C23.325 0 24 0.675 24 1.5V22.5C24 23.325 23.325 24 22.5 24H1.5C0.675 24 0 23.325 0 22.5Z" fill="#2D327D"/><path d="M15.075 16.35C13.791 16.35 12.75 17.391 12.75 18.675C12.75 19.247 12.956 19.77 13.299 20.175C13.725 20.68 14.362 21 15.075 21C15.788 21 16.425 20.68 16.851 20.175C17.194 19.77 17.4 19.247 17.4 18.675C17.4 17.391 16.359 16.35 15.075 16.35ZM15.075 19.875C14.412 19.875 13.875 19.338 13.875 18.675C13.875 18.012 14.412 17.475 15.075 17.475C15.738 17.475 16.275 18.012 16.275 18.675C16.275 19.338 15.738 19.875 15.075 19.875Z" fill="white"/><path d="M11.626 17.775H3.00098V19.275H11.626V17.775Z" fill="white"/><path d="M20.954 13L20.278 10.524C20.12 9.935 19.585 9.524 18.974 9.524H12.751L12.748 16.441C13.335 15.83 14.16 15.449 15.075 15.449C16.853 15.449 18.294 16.887 18.3 18.663V18.674V18.9C18.3 19.107 18.468 19.275 18.675 19.275H20.625C20.832 19.275 21 19.107 21 18.9L21.001 18.675V13.35C21.001 13.232 20.985 13.114 20.954 13ZM19.05 10.2C19.321 10.2 19.556 10.382 19.627 10.645L20.163 12.653C20.171 12.685 20.176 12.717 20.176 12.75C20.176 12.957 20.008 13.125 19.801 13.125H15.001C14.794 13.125 14.626 12.957 14.626 12.75V10.575C14.626 10.368 14.794 10.2 15.001 10.2H19.05Z" fill="white"/><path d="M3 17.021L11.625 17.025C11.625 17.025 11.625 11.175 11.625 8.55C11.625 8.343 11.457 8.175 11.25 8.175H3V10.2H8.7C8.907 10.2 9.075 10.368 9.075 10.575C9.075 10.782 8.907 10.95 8.7 10.95H3V11.7H8.7C8.907 11.7 9.075 11.868 9.075 12.075C9.075 12.282 8.907 12.45 8.7 12.45H3V17.021Z" fill="white"/></svg>
